images/themes/default/algorithms/mAlgorithmFuzzifyGaussian.svg

<svg height="24" viewBox="0 0 6.35 6.35" width="24" xmlns="http://www.w3.org/2000/svg"><path d="m1.846.679v4.857h4.554" fill="none" stroke="#000" stroke-width=".234"/><path d="m.633 4.803q-.171 0-.258.17-.085.167-.085.504 0 .337.085.506.087.167.258.167.172 0 .257-.167.087-.17.087-.506 0-.337-.087-.505-.085-.169-.257-.169zm0-.175q.275 0 .42.218.145.217.145.631 0 .414-.146.632-.144.217-.42.217-.274 0-.42-.217-.145-.218-.145-.632 0-.414.145-.63.146-.219.42-.219z"/><path d="m.165 1.493h.355v-1.224l-.386.077v-.198l.383-.077h.217v1.422h.355v.182h-.924z"/><path d="m1.954 5.18c1.546 0 1.303-4.37 2.264-4.37.902 0 .814 4.325 2.14 4.325" fill="none" stroke="#9200c9" stroke-width=".27"/></svg>

<svg xmlns="http://www.w3.org/2000/svg" viewBox="0 0 6.35 6.35" height="24" width="24"><path d="M1.846.679v4.857H6.4" fill="none" stroke="#000" stroke-width=".234"/><path d="M.633 4.803q-.171 0-.258.17-.085.167-.085.504 0 .337.085.506.087.167.258.167.172 0 .257-.167.087-.17.087-.506 0-.337-.087-.505-.085-.169-.257-.169zm0-.175q.275 0 .42.218.145.217.145.631 0 .414-.146.632-.144.217-.42.217-.274 0-.42-.217-.145-.218-.145-.632 0-.414.145-.63.146-.219.42-.219z" aria-label="0" font-weight="400" font-size="40" font-family="sans-serif" letter-spacing="0" word-spacing="0"/><path d="M.165 1.493H.52V.269L.134.346V.148L.517.071h.217v1.422h.355v.182H.165z" aria-label="1" font-weight="400" font-size="40" font-family="sans-serif" letter-spacing="0" word-spacing="0"/><path d="M1.954 5.18C3.5 5.18 3.257.81 4.218.81c.902 0 .814 4.325 2.14 4.325" fill="none" stroke="#9200c9" stroke-width=".27"/></svg>
